X: 1
T: Bulgarian Red
C: Charlie McKerran
R: reel
N: The title refers to a wine.
S: printed copy (with handwritten chords) of unknown origin in Concord Slow Scottish Session collection
Z: 2015 John Chambers <jc:trillian.mit.edu>
M: C|
L: 1/8
K: Dm
|:\
"Dm"Addc d2AB | "C"c2dc "G"BGGB |\
"Dm"Addc d2de | "F"f2fa "C"geed |
"Dm"Addc d2AB | "C"c2cA "G"BGGA |\
"G"B2BG "C"c2ce |1 "F"f2fa "C"geed :|2 "F"f2fa "C"geec |]
|:\
"Dm"dA (3AAA fAeA | "Dm"dA (3AAA "C"dcAc |\
"Dm"dA (3AAA "C"fAeA | "F"f2fa "C"geed |
"Dm"dA (3AAA fAeA | "Dm"dA (3AAA "C"dcAc |\
"G"B2BG "C"c2ce |1 "F"f2fa "C"geec :|2 "F"f2fa "C"geed |]
